X:1
T:Title
%%score { ( 1 3 4 ) | ( 2 5 6 ) }
L:1/8
M:4/4
K:Ab
V:1 treble nm="Grand Piano"
V:3 treble 
V:4 treble 
V:2 bass 
V:5 bass 
V:6 bass 
V:1
 z4 z2[Q:1/4=100] [CE]2 | [CA]>[CG] [CA]>[DB] [Ec]2 [EA]>[EG] | F2 F2 F2 F>[FA] | A>A G>F E2 F2 | %4
 [Ec]6 [CE]2 | [CA]>[CG] [CA]>[DB] [Ec]2 [EA]>[EG] |[M:9/8] F2 F- F/F/ [Fd]2- [Fd][Fd]>[Fd] | %7
[M:4/4] c>E F>G c2 B2 |[M:3/4] [CA]6 |[M:1/4] G>A |[M:4/4] B6 z2 | c6 z2 | e2 e2 c2 A>A | B6 z2 | %14
 [Ec]2 [Ec]2 e2 c>c |[M:9/8] [FB]2 [DF]- [DF] [Fd]2- [Fd]A>B |[M:4/4] c6 z2 |[M:3/4] A6 |] %18
V:2
 z4 z2 [A,,A,]2 | [A,,E,]>[A,,E,] [A,,E,]>[A,,E,] [A,,A,]2 [C,A,]>[C,A,] | %2
 [D,A,D]2 [D,A,D]2 [D,A,D]2 [D,A,D]>[D,A,] | [E,CE]>[E,CE] [E,B,E]>[E,A,E] [E,G,]2 [E,G,E]2 | %4
 [A,,A,]6 [A,,A,]2 | [A,,E,]>[A,,E,] [A,,E,]>[A,,E,] [A,,A,]2 [C,A,]>[C,A,] | %6
[M:9/8] [D,A,D]2 [D,A,D]- [D,A,D]/[D,A,D]/ [D,B,]2- [D,B,][D,A,]>[D,A,] | %7
[M:4/4] [E,A,E]>[E,A,C] [E,B,D]>[E,B,D] [E,A,E]2 [E,G,D]2 |[M:3/4] [A,,A,]6 |[M:1/4] z2 | %10
[M:4/4] z2 [E,E]>[E,E] [E,E]2 z2 | z2[K:treble] [A,E]>[A,E] [A,E]2 [A,EA]>[A,B,A] | %12
 [A,CA]2 [A,CA]2 [A,EA]2[K:bass] [F,=D]>[F,D] | z4 z/ G3/2- G/ z/ z | %14
 [A,,A,]2 [A,,A,]2[K:treble] [A,CA]2 [A,EA]>[A,EA] | %15
[M:9/8][K:bass] [D,D]2 [D,A,]- [D,A,] [D,A,]2- [D,A,][K:treble]F>=E |[M:4/4] E6[K:bass] z2 | %17
[M:3/4] z2 F,>F, E,2 |] %18
V:3
 x8 | x8 | x8 | x8 | x8 | x8 |[M:9/8] x9 |[M:4/4] x8 |[M:3/4] x6 |[M:1/4] x2 | %10
[M:4/4] z2 G>G G2 d>B | z2 A>A A2 c>d | x8 | z2 z z/ G/- G/ z/ z z2 | x8 |[M:9/8] x9 | %16
[M:4/4] z2 A,>A, A,2 A>B |[M:3/4] [A,C]2 D>D C2 |] %18
V:4
 x8 | x8 | x8 | x8 | x8 | x8 |[M:9/8] x9 |[M:4/4] x8 |[M:3/4] x6 |[M:1/4] x2 |[M:4/4] x8 | x8 | %12
 x8 | G2 G2 E2 [A,EA]>[EB] | x8 |[M:9/8] x9 |[M:4/4] x8 |[M:3/4] x6 |] %18
V:5
 x8 | x8 | x8 | x8 | x8 | x8 |[M:9/8] x9 |[M:4/4] x8 |[M:3/4] x6 |[M:1/4] x2 |[M:4/4] x8 | %11
 x2[K:treble] x6 | x6[K:bass] x2 | [E,E]2 [E,E]>[E,E] z D, C,>[B,,G,] | x4[K:treble] x4 | %15
[M:9/8][K:bass] x7[K:treble] x2 |[M:4/4] z2[K:bass] E,>E, E,2 [E,A,C]>[E,G,D] |[M:3/4] A,,6 |] %18
V:6
 x8 | x8 | x8 | x8 | x8 | x8 |[M:9/8] x9 |[M:4/4] x8 |[M:3/4] x6 |[M:1/4] x2 |[M:4/4] x8 | %11
 x2[K:treble] x6 | x6[K:bass] x2 | z4 .E,2 z2 | x4[K:treble] x4 |[M:9/8][K:bass] x7[K:treble] x2 | %16
[M:4/4] x2[K:bass] x6 |[M:3/4] x6 |] %18

